svg/device/remote_fill.svg

<?xml version="1.0" encoding="UTF-8"?>
<svg width="24px" height="24px" viewBox="0 0 24 24" version="1.1" xmlns="http://www.w3.org/2000/svg" xmlns:xlink="http://www.w3.org/1999/xlink">
    <title>remote_fill</title>
    <g id="页面-1" stroke="none" stroke-width="1" fill="none" fill-rule="evenodd">
        <g id="Device" transform="translate(-480.000000, -144.000000)" fill-rule="nonzero">
            <g id="remote_fill" transform="translate(480.000000, 144.000000)">
                 <path d="M24,0 L24,24 L0,24 L0,0 L24,0 Z M12.5934901,23.257841 L12.5819402,23.2595131 L12.5108777,23.2950439 L12.4918791,23.2987469 L12.4918791,23.2987469 L12.4767152,23.2950439 L12.4056548,23.2595131 C12.3958229,23.2563662 12.3870493,23.2590235 12.3821421,23.2649074 L12.3780323,23.275831 L12.360941,23.7031097 L12.3658947,23.7234994 L12.3769048,23.7357139 L12.4804777,23.8096931 L12.4953491,23.8136134 L12.4953491,23.8136134 L12.5071152,23.8096931 L12.6106902,23.7357139 L12.6232938,23.7196733 L12.6232938,23.7196733 L12.6266527,23.7031097 L12.609561,23.275831 C12.6075724,23.2657013 12.6010112,23.2592993 12.5934901,23.257841 L12.5934901,23.257841 Z M12.8583906,23.1452862 L12.8445485,23.1473072 L12.6598443,23.2396597 L12.6498822,23.2499052 L12.6498822,23.2499052 L12.6471943,23.2611114 L12.6650943,23.6906389 L12.6699349,23.7034178 L12.6699349,23.7034178 L12.678386,23.7104931 L12.8793402,23.8032389 C12.8914285,23.8068999 12.9022333,23.8029875 12.9078286,23.7952264 L12.9118235,23.7811639 L12.8776777,23.1665331 C12.8752882,23.1545897 12.8674102,23.1470016 12.8583906,23.1452862 L12.8583906,23.1452862 Z M12.1430473,23.1473072 C12.1332178,23.1423925 12.1221763,23.1452606 12.1156365,23.1525954 L12.1099173,23.1665331 L12.0757714,23.7811639 C12.0751323,23.7926639 12.0828099,23.8018602 12.0926481,23.8045676 L12.108256,23.8032389 L12.3092106,23.7104931 L12.3186497,23.7024347 L12.3186497,23.7024347 L12.3225043,23.6906389 L12.340401,23.2611114 L12.337245,23.2485176 L12.337245,23.2485176 L12.3277531,23.2396597 L12.1430473,23.1473072 Z" id="MingCute" fill-rule="nonzero"></path>
                <path d="M16,12 C17.6569,12 19,13.3431 19,15 L19,21 C19,21.5523 18.5497,22 17.9974,22 L6.00002,22 C5.44774,22 5.00002,21.5523 5.00002,21 L5.00002,15 C5.00002,13.3431 6.34316,12 8.00002,12 L16,12 Z M14.00001,16 L10.00001,16 C9.44773,16 9.00001,16.4477 9.00001,17 C9.00001,17.51285 9.38605429,17.9355092 9.88338975,17.9932725 L10.00001,18 L14.00001,18 C14.5523,18 15.00001,17.5523 15.00001,17 C15.00001,16.48715 14.6139743,16.0644908 14.1166321,16.0067275 L14.00001,16 Z M12,8 C13.0608,8 14.0472,8.33148 14.8574,8.89649 C15.3104,9.2124 15.4215,9.83574 15.1056,10.2887 C14.7897,10.7418 14.1664,10.8529 13.7134,10.537 C13.2279,10.1984 12.6386,10 12,10 C11.3615,10 10.7723,10.1984 10.2868,10.5368 C9.83378,10.8527 9.21045,10.7415 8.89457,10.2885 C8.57869,9.83549 8.68987,9.21216 9.1429,8.89628 C9.95305,8.33139 10.9393,8 12,8 Z M12,5 C13.9183,5 15.6812,5.67641 17.0595,6.80278 C17.4871,7.15227 17.5505,7.78226 17.201,8.2099 C16.8515,8.63754 16.2215,8.70089 15.7939,8.3514 C14.7597,7.50623 13.4403,7 12,7 C10.5605,7 9.24178,7.50569 8.20787,8.35005 C7.78011,8.6994 7.15014,8.63582 6.8008,8.20806 C6.45146,7.7803 6.51503,7.15034 6.94279,6.801 C8.32071,5.67569 10.0828,5 12,5 Z M12.0001,2 C14.7569,2 17.279,3.01541 19.209,4.69127 C19.626,5.05337 19.6705,5.68497 19.3084,6.10199 C18.9463,6.519 18.3147,6.56352 17.8977,6.20142 C16.3176,4.82942 14.257,4 12.0001,4 C9.74141,4 7.67927,4.83073 6.0987,6.20468 C5.68188,6.56701 5.05026,6.52283 4.68793,6.10602 C4.3256,5.6892 4.36977,5.05758 4.78659,4.69525 C6.7172,3.01702 9.24111,2 12.0001,2 Z" id="形状" fill="#09244B"></path>
            </g>
        </g>
    </g>
</svg>

<svg xmlns="http://www.w3.org/2000/svg" width="24" height="24"><g fill="none" fill-rule="nonzero"><path d="M24 0v24H0V0h24ZM12.593 23.258l-.011.002-.071.035-.02.004-.014-.004-.071-.035c-.01-.004-.019-.001-.024.005l-.004.01-.017.428.005.02.01.013.104.074.015.004.012-.004.104-.074.012-.016.004-.017-.017-.427c-.002-.01-.009-.017-.017-.018Zm.265-.113-.013.002-.185.093-.01.01-.003.011.018.43.005.012.008.007.201.093c.012.004.023 0 .029-.008l.004-.014-.034-.614c-.003-.012-.01-.02-.02-.022Zm-.715.002a.023.023 0 0 0-.027.006l-.006.014-.034.614c0 .012.007.02.017.024l.015-.002.201-.093.01-.008.004-.011.017-.43-.003-.012-.01-.01-.184-.092Z"/><path fill="#09244B" d="M16 12a3 3 0 0 1 3 3v6c0 .552-.45 1-1.003 1H6a1 1 0 0 1-1-1v-6a3 3 0 0 1 3-3h8Zm-2 4h-4a1 1 0 0 0-.117 1.993L10 18h4a1 1 0 0 0 .117-1.993L14 16Zm-2-8c1.06 0 2.047.331 2.857.896a1 1 0 0 1-1.144 1.641A2.982 2.982 0 0 0 12 10c-.639 0-1.228.198-1.713.537a1 1 0 1 1-1.144-1.64A4.982 4.982 0 0 1 12 8Zm0-3c1.918 0 3.681.676 5.06 1.803a1 1 0 0 1-1.266 1.548A5.971 5.971 0 0 0 12 7c-1.44 0-2.758.506-3.792 1.35a1 1 0 1 1-1.265-1.549A7.971 7.971 0 0 1 12 5Zm0-3c2.757 0 5.279 1.015 7.209 2.691a1 1 0 0 1-1.311 1.51A8.961 8.961 0 0 0 12 4C9.741 4 7.68 4.83 6.1 6.205a1 1 0 0 1-1.312-1.51A10.961 10.961 0 0 1 12 2Z"/></g></svg>
